docs/svg/wds-icons-share.svg

<svg xmlns="http://www.w3.org/2000/svg" xmlns:xlink="http://www.w3.org/1999/xlink" viewBox="0 0 24 24">
  <defs>
    <path id="share-a" d="M19 22a3.004 3.004 0 0 1-2.724-4.256 1.055 1.055 0 0 0 .087-.174A3.004 3.004 0 0 1 19 16c1.654 0 3 1.346 3 3s-1.346 3-3 3M7.724 13.256a1.055 1.055 0 0 0-.087.174A3.004 3.004 0 0 1 5 15c-1.654 0-3-1.346-3-3s1.346-3 3-3c1.137 0 2.128.636 2.637 1.57a1.055 1.055 0 0 0 .087.174c.177.382.276.808.276 1.256 0 .448-.099.874-.276 1.256M19 2c1.654 0 3 1.346 3 3s-1.346 3-3 3a3.004 3.004 0 0 1-2.637-1.57 1.055 1.055 0 0 0-.087-.174A3.004 3.004 0 0 1 19 2m0 12a4.998 4.998 0 0 0-3.931 1.912l-5.24-2.611a5.04 5.04 0 0 0 0-2.602l5.24-2.611A4.998 4.998 0 0 0 24 5c0-2.757-2.243-5-5-5a5.006 5.006 0 0 0-4.829 6.301l-5.24 2.611A4.998 4.998 0 0 0 0 12a4.998 4.998 0 1 0 8.931 3.088l5.24 2.611A5.006 5.006 0 0 0 19 24c2.757 0 5-2.243 5-5s-2.243-5-5-5"/>
  </defs>
  <use fill-rule="evenodd" xlink:href="#share-a"/>
</svg>

<svg xmlns="http://www.w3.org/2000/svg" xmlns:xlink="http://www.w3.org/1999/xlink" viewBox="0 0 24 24">
  <defs>
    <path id="share-a" d="M19,22 C17.346,22 16,20.654 16,19 C16,18.552 16.099,18.126 16.276,17.744 C16.293,17.716 16.31,17.687 16.325,17.656 C16.339,17.628 16.352,17.6 16.363,17.57 C16.872,16.636 17.863,16 19,16 C20.654,16 22,17.346 22,19 C22,20.654 20.654,22 19,22 M7.724,13.256 C7.707,13.284 7.69,13.313 7.675,13.344 C7.661,13.372 7.648,13.4 7.637,13.43 C7.128,14.364 6.137,15 5,15 C3.346,15 2,13.654 2,12 C2,10.346 3.346,9 5,9 C6.137,9 7.128,9.636 7.637,10.57 C7.648,10.6 7.661,10.628 7.675,10.656 C7.69,10.687 7.707,10.716 7.724,10.744 C7.901,11.126 8,11.552 8,12 C8,12.448 7.901,12.874 7.724,13.256 M19,2 C20.654,2 22,3.346 22,5 C22,6.654 20.654,8 19,8 C17.863,8 16.872,7.364 16.363,6.43 C16.352,6.4 16.339,6.372 16.325,6.344 C16.31,6.313 16.293,6.284 16.276,6.256 C16.099,5.874 16,5.448 16,5 C16,3.346 17.346,2 19,2 M19,14 C17.407,14 15.986,14.749 15.069,15.912 L9.829,13.301 C9.94,12.885 10,12.449 10,12 C10,11.551 9.94,11.115 9.829,10.699 L15.069,8.088 C15.986,9.251 17.407,10 19,10 C21.757,10 24,7.757 24,5 C24,2.243 21.757,0 19,0 C16.243,0 14,2.243 14,5 C14,5.449 14.06,5.885 14.171,6.301 L8.931,8.912 C8.014,7.749 6.593,7 5,7 C2.243,7 0,9.243 0,12 C0,14.757 2.243,17 5,17 C6.593,17 8.014,16.251 8.931,15.088 L14.171,17.699 C14.06,18.115 14,18.551 14,19 C14,21.757 16.243,24 19,24 C21.757,24 24,21.757 24,19 C24,16.243 21.757,14 19,14"/>
  </defs>
  <use fill-rule="evenodd" xlink:href="#share-a"/>
</svg>
